X:288
T:B288-  Loath to Depart
Q:1/4=120
L:1/4
M:6/4
K:Bb lydian
AAAA2d|c3/2 d/BA3|G3/2 A/BA2G|d3/2 c/BA2G|\
AAAA2d|c3/2 d/BA3|d3/2 c/BA2=B|cA2=B3|]

